itou/static/img/login.svg

<svg width="543" height="326" viewBox="0 0 543 326" fill="none" xmlns="http://www.w3.org/2000/svg">
<g clip-path="url(#clip0)">
<path d="M28.2959 325.272C28.2597 325.112 24.7508 309.115 31.9168 295.829C39.0828 282.543 54.3792 276.683 54.5329 276.625L55.232 276.363L55.3972 277.092C55.4335 277.252 58.9423 293.248 51.7763 306.535C44.6106 319.821 29.3139 325.68 29.1602 325.738L28.4608 326L28.2959 325.272ZM54.2733 278.141C51.2093 279.459 39.1165 285.226 33.0642 296.447C27.0113 307.67 28.8375 320.941 29.4198 324.223C32.4826 322.908 44.5705 317.15 50.6289 305.917C56.6814 294.695 54.8559 281.425 54.2733 278.141V278.141Z" fill="#F1F1F1"/>
<path d="M46.3001 301.874C33.4224 309.62 28.4628 325.006 28.4628 325.006C28.4628 325.006 44.3821 327.832 57.2597 320.087C70.1374 312.341 75.097 296.955 75.097 296.955C75.097 296.955 59.1778 294.129 46.3001 301.874Z" fill="#F1F1F1"/>
<path d="M241.316 177.702C241.513 176.688 241.484 175.644 241.233 174.643C240.982 173.642 240.515 172.708 239.864 171.906C239.213 171.105 238.394 170.457 237.465 170.006C236.536 169.556 235.519 169.314 234.487 169.299L228.523 154.306L218.526 155.707L227.245 176.762C227.334 178.498 228.057 180.14 229.277 181.378C230.497 182.617 232.128 183.365 233.863 183.481C235.597 183.596 237.314 183.072 238.688 182.007C240.062 180.942 240.997 179.41 241.316 177.702Z" fill="#9F616A"/>
<path d="M222.898 172.433L219.8 165.048L200.496 128.311L201.546 60.3346L201.747 60.3079C214.099 58.6763 222.456 115.577 222.806 118L235.003 159.704L237.906 168.896L222.898 172.433Z" fill="#006ADC"/>
<path d="M193.236 315.772L202.622 315.772L207.087 279.578L193.234 279.579L193.236 315.772Z" fill="#9F616A"/>
<path d="M190.842 312.708L209.326 312.707H209.327C212.451 312.707 215.447 313.948 217.656 316.156C219.865 318.365 221.106 321.36 221.106 324.483V324.866L190.843 324.867L190.842 312.708Z" fill="#2F2E41"/>
<path d="M106.938 301.475L114.639 306.84L139.001 279.698L127.635 271.78L106.938 301.475Z" fill="#9F616A"/>
<path d="M106.726 297.594L121.891 308.159L121.892 308.159C124.455 309.945 126.203 312.676 126.753 315.75C127.302 318.825 126.607 321.992 124.821 324.554L124.603 324.868L99.773 307.57L106.726 297.594Z" fill="#2F2E41"/>
<path d="M188.078 307.265L187.672 239.368L181.767 196.675L170.757 234.22L170.735 234.25L130.836 292.162L115.311 284.298L115.396 284.096C116.345 281.84 138.701 228.85 144.711 228.85C145.235 228.887 145.761 228.795 146.243 228.584C146.725 228.372 147.148 228.047 147.475 227.635C149.239 225.281 147.803 220.284 147.788 220.234C146.068 213.102 150.393 210.674 151.255 210.268L153.572 162.447L153.812 162.464L216.628 166.869L213.992 226.658L208.323 304.993L208.129 305.015L188.078 307.265Z" fill="#2F2E41"/>
<path d="M217.587 177.466L217.316 177.443L149.759 171.999L149.926 149.652L153.232 91.3011L153.251 91.2606L166.717 62.0335L176.262 57.7122L190.189 56.9795L190.223 56.988L202.932 60.1361L216.154 155.025L217.587 177.466Z" fill="#006ADC"/>
<path d="M192.371 49.489C200.991 44.7782 204.158 33.9733 199.447 25.3557C194.735 16.738 183.927 13.571 175.308 18.2818C166.688 22.9926 163.52 33.7975 168.232 42.4151C172.944 51.0328 183.751 54.1999 192.371 49.489Z" fill="#9F616A"/>
<path d="M165.951 38.3491V31.4205C165.951 31.4205 160.362 24.8398 166.51 23.1821C166.51 23.1821 168.187 6.60516 182.718 14.3411C182.718 14.3411 202.837 11.0257 200.602 22.6295C200.602 22.6295 205.632 19.6001 203.955 27.336L200.713 39.7972C200.713 39.7972 202.279 31.5657 197.249 30.4606L194.454 28.8029C194.454 28.8029 186.63 36.5388 174.893 27.1452C174.893 27.1452 169.863 25.9449 170.422 30.918C170.981 35.8911 165.951 38.3491 165.951 38.3491Z" fill="#2F2E41"/>
<path d="M181.987 160.777C181.999 159.745 181.783 158.723 181.357 157.783C180.93 156.843 180.303 156.007 179.518 155.336C178.734 154.665 177.812 154.174 176.817 153.897C175.822 153.621 174.779 153.566 173.761 153.736L165.203 140.056L155.619 143.227L167.976 162.377C168.375 164.068 169.381 165.554 170.804 166.554C172.226 167.553 173.965 167.996 175.692 167.799C177.42 167.602 179.014 166.778 180.175 165.484C181.335 164.19 181.98 162.515 181.987 160.777Z" fill="#9F616A"/>
<path d="M159.884 156.464L144.402 125.038L144.415 124.961C144.478 124.613 150.71 90.017 155.476 77.3004C160.273 64.5033 166.839 61.934 167.116 61.8309L167.255 61.7793L173.142 67.425L164.987 121.846L173.777 148.092L159.884 156.464Z" fill="#006ADC"/>
<path d="M542.336 0H512.359V29.9706H542.336V0Z" fill="#F1F1F1"/>
<path d="M307.73 116.625H277.752V146.596H307.73V116.625Z" fill="#F1F1F1"/>
<path d="M294.578 133.462H531.579V13.5088H294.578V133.462Z" fill="white"/>
<path d="M533.534 135.417H292.623V11.5547H533.534V135.417ZM296.533 131.508H529.624V15.4639H296.533V131.508Z" fill="#E5E5E5"/>
<path d="M505.372 55.5869H323.026V61.6326H505.372V55.5869Z" fill="#E5E5E5"/>
<path d="M505.372 70.248H323.026V76.2937H505.372V70.248Z" fill="#E5E5E5"/>
<path d="M505.372 91.8955H471.484V97.1421H505.372V91.8955Z" fill="#006ADC"/>
<path d="M248.944 325.974H0.651685C0.478848 325.974 0.313088 325.905 0.190874 325.783C0.068659 325.661 0 325.495 0 325.322C0 325.15 0.068659 324.984 0.190874 324.862C0.313088 324.74 0.478848 324.671 0.651685 324.671H248.944C249.117 324.671 249.282 324.74 249.405 324.862C249.527 324.984 249.595 325.15 249.595 325.322C249.595 325.495 249.527 325.661 249.405 325.783C249.282 325.905 249.117 325.974 248.944 325.974Z" fill="#CBCBCB"/>
</g>
<defs>
<clipPath id="clip0">
<rect width="542.336" height="326" fill="white"/>
</clipPath>
</defs>
</svg>

<svg width="543" height="326" fill="none" xmlns="http://www.w3.org/2000/svg"><g clip-path="url(#a)"><path d="M28.3 325.27c-.04-.16-3.55-16.15 3.62-29.44 7.16-13.29 22.46-19.15 22.61-19.2l.7-.27.17.73c.03.16 3.54 16.16-3.62 29.45-7.17 13.28-22.47 19.14-22.62 19.2l-.7.26-.16-.73Zm25.97-47.13c-3.06 1.32-15.15 7.09-21.2 18.3-6.06 11.23-4.23 24.5-3.65 27.78 3.06-1.31 15.15-7.07 21.2-18.3 6.06-11.23 4.24-24.5 3.65-27.78Z" fill="#F1F1F1"/><path d="M46.3 301.87c-12.88 7.75-17.84 23.14-17.84 23.14s15.92 2.82 28.8-4.92c12.88-7.75 17.84-23.13 17.84-23.13s-15.92-2.83-28.8 4.91Z" fill="#F1F1F1"/><path d="M241.32 177.7a7.05 7.05 0 0 0-6.83-8.4l-5.97-15-10 1.4 8.72 21.06a7.1 7.1 0 0 0 14.08.94Z" fill="#9F616A"/><path d="m222.9 172.43-3.1-7.38-19.3-36.74 1.05-67.98.2-.02c12.35-1.63 20.7 55.27 21.06 57.69l12.2 41.7 2.9 9.2-15.01 3.53Z" fill="#006ADC"/><path d="M193.24 315.77h9.38l4.47-36.2h-13.86v36.2Z" fill="#9F616A"/><path d="M190.84 312.7h18.49a11.78 11.78 0 0 1 11.78 11.78v.39h-30.27V312.7Z" fill="#2F2E41"/><path d="m106.94 301.48 7.7 5.36L139 279.7l-11.36-7.92-20.7 29.7Z" fill="#9F616A"/><path d="m106.73 297.6 15.16 10.56a11.78 11.78 0 0 1 2.93 16.4l-.22.3-24.83-17.29 6.96-9.98ZM188.08 307.26l-.4-67.9-5.91-42.69-11.01 37.55-.02.03-39.9 57.91-15.53-7.86.09-.2c.94-2.26 23.3-55.25 29.31-55.25a3.25 3.25 0 0 0 2.76-1.22c1.77-2.35.33-7.35.32-7.4-1.72-7.13 2.6-9.56 3.47-9.96l2.31-47.82.24.01 62.82 4.4-2.64 59.8-5.67 78.33-.2.02-20.04 2.25Z" fill="#2F2E41"/><path d="m217.59 177.47-.27-.03-67.56-5.44.17-22.35 3.3-58.35.02-.04 13.47-29.23 9.54-4.32 13.93-.73h.03l12.71 3.16 13.22 94.89 1.44 22.44Z" fill="#006ADC"/><path d="M192.37 49.49a17.78 17.78 0 1 0-17.05-31.2 17.78 17.78 0 0 0 17.05 31.2Z" fill="#9F616A"/><path d="M165.95 38.35v-6.93s-5.59-6.58.56-8.24c0 0 1.68-16.57 16.2-8.84 0 0 20.13-3.31 17.9 8.29 0 0 5.02-3.03 3.34 4.7l-3.24 12.47s1.57-8.23-3.46-9.34l-2.8-1.66s-7.82 7.74-19.56-1.65c0 0-5.03-1.2-4.47 3.77.56 4.97-4.47 7.43-4.47 7.43Z" fill="#2F2E41"/><path d="M181.99 160.78a7.06 7.06 0 0 0-8.23-7.04l-8.56-13.68-9.58 3.17 12.36 19.15a7.1 7.1 0 0 0 14-1.6Z" fill="#9F616A"/><path d="m159.88 156.46-15.48-31.42.01-.08c.07-.35 6.3-34.94 11.07-47.66 4.8-12.8 11.36-15.37 11.64-15.47l.13-.05 5.9 5.64-8.16 54.43 8.79 26.24-13.9 8.37Z" fill="#006ADC"/><path d="M542.34 0h-29.98v29.97h29.98V0ZM307.73 116.63h-29.98v29.97h29.98v-29.97Z" fill="#F1F1F1"/><path d="M294.58 133.46h237V13.51h-237v119.95Z" fill="#fff"/><path d="M533.53 135.42h-240.9V11.55h240.9v123.87Zm-237-3.91h233.1V15.46h-233.1v116.05Z" fill="#E5E5E5"/><path d="M505.37 55.59H323.03v6.04h182.34V55.6ZM505.37 70.25H323.03v6.04h182.34v-6.04Z" fill="#E5E5E5"/><path d="M505.37 91.9h-33.89v5.24h33.9V91.9Z" fill="#006ADC"/><path d="M248.94 325.97H.65a.65.65 0 0 1 0-1.3h248.3a.65.65 0 0 1 .65.65.65.65 0 0 1-.66.65Z" fill="#CBCBCB"/></g><defs><clipPath id="a"><path fill="#fff" d="M0 0h542.34v326H0z"/></clipPath></defs></svg>
